icon-themes/breeze_svg/cmd/lc_insertobjectfloatingframe.svg

<svg viewBox="0 0 24 24" xmlns="http://www.w3.org/2000/svg"><path d="m4 4v1 14 1h16v-1-15h-15zm2 2h12v12h-12zm2 1v10h5l3-4v-6h-1zm1 1h6v5h-2v3h-4z" fill="#4d4d4d"/></svg>

<svg xmlns="http://www.w3.org/2000/svg" viewBox="0 0 24 24">
 <path 
     style="fill:#4d4d4d" 
     d="M 4 4 L 4 5 L 4 19 L 4 20 L 20 20 L 20 19 L 20 4 L 5 4 L 4 4 z M 6 6 L 18 6 L 18 18 L 6 18 L 6 6 z M 8 7 L 8 17 L 13 17 L 16 13 L 16 7 L 15 7 L 8 7 z M 9 8 L 15 8 L 15 13 L 13 13 L 13 16 L 9 16 L 9 8 z "
     />
 </svg>
